build/assets/star-rating.svg

<svg width="20" height="20" viewBox="0 0 20 20" fill="none" xmlns="http://www.w3.org/2000/svg">
<path d="M19.2836 7.55056L13.3328 6.68571L10.6727 1.29275C10.6 1.14509 10.4805 1.02556 10.3328 0.952902C9.9625 0.770089 9.5125 0.922433 9.32734 1.29275L6.66719 6.68571L0.716404 7.55056C0.552342 7.574 0.402342 7.65134 0.287498 7.76853C0.148658 7.91123 0.0721514 8.10322 0.0747883 8.3023C0.0774251 8.50138 0.15899 8.69127 0.301561 8.83025L4.60703 13.0279L3.58984 18.9552C3.56599 19.0931 3.58125 19.2349 3.63389 19.3646C3.68652 19.4942 3.77444 19.6066 3.88766 19.6888C4.00088 19.771 4.13487 19.8199 4.27445 19.8298C4.41403 19.8398 4.5536 19.8104 4.67734 19.7451L10 16.9467L15.3227 19.7451C15.468 19.8224 15.6367 19.8482 15.7984 19.8201C16.2062 19.7498 16.4805 19.3631 16.4102 18.9552L15.393 13.0279L19.6984 8.83025C19.8156 8.7154 19.893 8.5654 19.9164 8.40134C19.9797 7.99118 19.6937 7.6115 19.2836 7.55056V7.55056Z" fill="#E3DDDC"/>
</svg>

<svg xmlns="http://www.w3.org/2000/svg" width="20" height="20" fill="none"><path fill="#E3DDDC" d="m19.284 7.55-5.951-.864-2.66-5.393a.753.753 0 0 0-1.345 0l-2.66 5.393-5.952.865a.749.749 0 0 0-.414 1.28l4.305 4.197-1.017 5.927a.75.75 0 0 0 1.087.79L10 16.947l5.323 2.798a.749.749 0 0 0 1.088-.79l-1.018-5.927 4.305-4.198a.748.748 0 0 0 .218-.429.747.747 0 0 0-.632-.85Z"/></svg>
